public/assets/vectors/java.svg

<?xml version="1.0" encoding="UTF-8" standalone="no"?>
<svg
   xmlns:dc="http://purl.org/dc/elements/1.1/"
   xmlns:cc="http://creativecommons.org/ns#"
   xmlns:rdf="http://www.w3.org/1999/02/22-rdf-syntax-ns#"
   xmlns:svg="http://www.w3.org/2000/svg"
   xmlns="http://www.w3.org/2000/svg"
   xmlns:sodipodi="http://sodipodi.sourceforge.net/DTD/sodipodi-0.dtd"
   xmlns:inkscape="http://www.inkscape.org/namespaces/inkscape"
   width="100pt"
   height="100pt"
   viewBox="0 0 100 100"
   version="1.1"
   id="svg17"
   sodipodi:docname="java.svg"
   inkscape:version="0.92.4 (5da689c313, 2019-01-14)">
  <metadata
     id="metadata23">
    <rdf:RDF>
      <cc:Work
         rdf:about="">
        <dc:format>image/svg+xml</dc:format>
        <dc:type
           rdf:resource="http://purl.org/dc/dcmitype/StillImage" />
        <dc:title></dc:title>
      </cc:Work>
    </rdf:RDF>
  </metadata>
  <defs
     id="defs21" />
  <sodipodi:namedview
     pagecolor="#ffffff"
     bordercolor="#666666"
     borderopacity="1"
     objecttolerance="10"
     gridtolerance="10"
     guidetolerance="10"
     inkscape:pageopacity="0"
     inkscape:pageshadow="2"
     inkscape:window-width="1600"
     inkscape:window-height="877"
     id="namedview19"
     showgrid="false"
     inkscape:document-units="pt"
     inkscape:zoom="2.2125"
     inkscape:cx="53.333333"
     inkscape:cy="53.333333"
     inkscape:window-x="-8"
     inkscape:window-y="90"
     inkscape:window-maximized="1"
     inkscape:current-layer="svg17" />
  <g
     id="surface231947"
     transform="matrix(1.199945,0,0,1.199945,2.0022,2.0034922)">
    <path
       style="fill:#f34235;fill-opacity:1;fill-rule:nonzero;stroke:none"
       d="M 39.417969,41.496094 C 37.753906,38.816406 36.546875,36.589844 34.875,32.40625 32.046875,25.332031 52.066406,18.941406 43.949219,6.664062 47.46875,15.148438 31.320312,20.390625 29.820312,27.453125 c -1.371093,6.496094 9.589844,14.042969 9.597657,14.042969 z m 0,0"
       id="path2"
       inkscape:connector-curvature="0" />
    <path
       style="fill:#f34235;fill-opacity:1;fill-rule:nonzero;stroke:none"
       d="m 39.796875,28.785156 c -0.320313,4.191406 3.714844,6.425782 3.832031,9.488282 0.09375,2.496093 -2.414062,4.574218 -2.414062,4.574218 0,0 4.546875,-0.894531 5.96875,-4.699218 1.574218,-4.222657 -3.058594,-7.113282 -2.582032,-10.496094 0.445313,-3.230469 10.050782,-9.238282 10.050782,-9.238282 0,0 -14.132813,0.9375 -14.855469,10.371094 z m 0,0"
       id="path4"
       inkscape:connector-curvature="0" />
    <path
       style="fill:#1463bf;fill-opacity:1;fill-rule:nonzero;stroke:none"
       d="m 53.472656,41.757812 c 2.925782,-0.65625 5.390625,1.207032 5.390625,3.351563 0,4.832031 -6.703125,9.402344 -6.703125,9.402344 0,0 10.375,-1.234375 10.375,-9.171875 0,-5.25 -5.09375,-6.5625 -9.0625,-3.582032 z m -4.925781,3.902344 c 0,0 3.238281,-2.308594 4.097656,-3.171875 -7.9375,1.683594 -26.0625,1.910157 -26.0625,0.449219 0,-1.347656 5.84375,-2.730469 5.84375,-2.730469 0,0 -12.953125,-0.1875 -12.953125,3.632813 0,3.984375 16.957032,4.269531 29.074219,1.820312 z m 0,0"
       id="path6"
       inkscape:connector-curvature="0" />
    <path
       style="fill:#1463bf;fill-opacity:1;fill-rule:nonzero;stroke:none"
       d="m 46.558594,49.285156 c -7.515625,2.5 -21.355469,1.699219 -17.257813,-1.65625 -1.996093,0 -4.957031,1.605469 -4.957031,3.148438 0,3.097656 14.972656,5.484375 26.050781,0.953125 z m 0,0"
       id="path8"
       inkscape:connector-curvature="0" />
    <path
       style="fill:#1463bf;fill-opacity:1;fill-rule:nonzero;stroke:none"
       d="m 31.144531,54.566406 c -2.726562,0 -4.492187,1.753906 -4.492187,3.035156 0,3.984376 16.265625,4.386719 22.710937,0.339844 l -4.097656,-2.71875 c -4.8125,2.117188 -16.910156,2.410156 -14.121094,-0.65625 z m 0,0"
       id="path10"
       inkscape:connector-curvature="0" />
    <path
       style="fill:#1463bf;fill-opacity:1;fill-rule:nonzero;stroke:none"
       d="m 60.46875,61.054688 c 0,-1.5625 -1.757812,-2.296876 -2.390625,-2.648438 3.714844,8.957031 -37.191406,8.261719 -37.191406,2.972656 0,-1.199218 3.011719,-2.378906 5.792969,-1.820312 L 24.3125,58.160156 C 18.765625,57.289062 15,59.726562 15,61.695312 c 0,9.171876 45.46875,8.730469 45.46875,-0.640624 z m 0,0"
       id="path12"
       inkscape:connector-curvature="0" />
    <path
       style="fill:#1463bf;fill-opacity:1;fill-rule:nonzero;stroke:none"
       d="m 65,64.339844 c -6.910156,6.824218 -24.433594,9.3125 -42.050781,5.09375 17.617187,7.507812 41.96875,3.28125 42.050781,-5.09375 z m 0,0"
       id="path14"
       inkscape:connector-curvature="0" />
  </g>
</svg>

<?xml version="1.0" encoding="UTF-8"?>
<svg xmlns="http://www.w3.org/2000/svg" xmlns:xlink="http://www.w3.org/1999/xlink" width="80pt" height="80pt" viewBox="0 0 80 80" version="1.1">
<g id="surface231947">
<path style=" stroke:none;fill-rule:nonzero;fill:rgb(95.686275%,26.27451%,21.176471%);fill-opacity:1;" d="M 39.417969 41.496094 C 37.753906 38.816406 36.546875 36.589844 34.875 32.40625 C 32.046875 25.332031 52.066406 18.941406 43.949219 6.664062 C 47.46875 15.148438 31.320312 20.390625 29.820312 27.453125 C 28.449219 33.949219 39.410156 41.496094 39.417969 41.496094 Z M 39.417969 41.496094 "/>
<path style=" stroke:none;fill-rule:nonzero;fill:rgb(95.686275%,26.27451%,21.176471%);fill-opacity:1;" d="M 39.796875 28.785156 C 39.476562 32.976562 43.511719 35.210938 43.628906 38.273438 C 43.722656 40.769531 41.214844 42.847656 41.214844 42.847656 C 41.214844 42.847656 45.761719 41.953125 47.183594 38.148438 C 48.757812 33.925781 44.125 31.035156 44.601562 27.652344 C 45.046875 24.421875 54.652344 18.414062 54.652344 18.414062 C 54.652344 18.414062 40.519531 19.351562 39.796875 28.785156 Z M 39.796875 28.785156 "/>
<path style=" stroke:none;fill-rule:nonzero;fill:rgb(8.235294%,39.607843%,75.294118%);fill-opacity:1;" d="M 53.472656 41.757812 C 56.398438 41.101562 58.863281 42.964844 58.863281 45.109375 C 58.863281 49.941406 52.160156 54.511719 52.160156 54.511719 C 52.160156 54.511719 62.535156 53.277344 62.535156 45.339844 C 62.535156 40.089844 57.441406 38.777344 53.472656 41.757812 Z M 48.546875 45.660156 C 48.546875 45.660156 51.785156 43.351562 52.644531 42.488281 C 44.707031 44.171875 26.582031 44.398438 26.582031 42.9375 C 26.582031 41.589844 32.425781 40.207031 32.425781 40.207031 C 32.425781 40.207031 19.472656 40.019531 19.472656 43.839844 C 19.472656 47.824219 36.429688 48.109375 48.546875 45.660156 Z M 48.546875 45.660156 "/>
<path style=" stroke:none;fill-rule:nonzero;fill:rgb(8.235294%,39.607843%,75.294118%);fill-opacity:1;" d="M 46.558594 49.285156 C 39.042969 51.785156 25.203125 50.984375 29.300781 47.628906 C 27.304688 47.628906 24.34375 49.234375 24.34375 50.777344 C 24.34375 53.875 39.316406 56.261719 50.394531 51.730469 Z M 46.558594 49.285156 "/>
<path style=" stroke:none;fill-rule:nonzero;fill:rgb(8.235294%,39.607843%,75.294118%);fill-opacity:1;" d="M 31.144531 54.566406 C 28.417969 54.566406 26.652344 56.320312 26.652344 57.601562 C 26.652344 61.585938 42.917969 61.988281 49.363281 57.941406 L 45.265625 55.222656 C 40.453125 57.339844 28.355469 57.632812 31.144531 54.566406 Z M 31.144531 54.566406 "/>
<path style=" stroke:none;fill-rule:nonzero;fill:rgb(8.235294%,39.607843%,75.294118%);fill-opacity:1;" d="M 60.46875 61.054688 C 60.46875 59.492188 58.710938 58.757812 58.078125 58.40625 C 61.792969 67.363281 20.886719 66.667969 20.886719 61.378906 C 20.886719 60.179688 23.898438 59 26.679688 59.558594 L 24.3125 58.160156 C 18.765625 57.289062 15 59.726562 15 61.695312 C 15 70.867188 60.46875 70.425781 60.46875 61.054688 Z M 60.46875 61.054688 "/>
<path style=" stroke:none;fill-rule:nonzero;fill:rgb(8.235294%,39.607843%,75.294118%);fill-opacity:1;" d="M 65 64.339844 C 58.089844 71.164062 40.566406 73.652344 22.949219 69.433594 C 40.566406 76.941406 64.917969 72.714844 65 64.339844 Z M 65 64.339844 "/>
</g>
</svg>
